Origami/22x22/apps/vmpk.svg

<svg width="22" height="22" version="1" xmlns="http://www.w3.org/2000/svg">
 <path d="M 22,20.444519 V 3.5561516 C 22,2.9707419 21.509231,2.5 20.9,2.5 H 1.1 C 0.4905436,2.5 0,2.9707419 0,3.555481 V 20.444966 C 0,21.029482 0.4905436,21.5 1.1,21.5 h 19.8 c 0.6094,0 1.1,-0.470764 1.1,-1.055526 z" style="opacity:.2"/>
 <path d="M 22,19.944519 V 3.0561516 C 22,2.4707419 21.509231,2 20.9,2 H 1.1 C 0.4905436,2 0,2.4707419 0,3.055481 V 19.944966 C 0,20.529482 0.4905436,21 1.1,21 h 19.8 c 0.6094,0 1.1,-0.470764 1.1,-1.055526 z" style="fill:#4f4f4f"/>
 <rect x="2" y="4.5" width="3" height="15" ry=".5" style="opacity:.2"/>
 <rect x="2" y="4" width="3" height="15" ry=".5" style="fill:#d8d8d8"/>
 <rect x="5" y="4.5" width="3" height="15" ry=".5" style="opacity:.2"/>
 <rect x="5" y="4" width="3" height="15" ry=".5" style="fill:#f0f0f0"/>
 <rect x="8" y="4.5" width="2" height="15" ry=".5" style="opacity:.2"/>
 <rect x="8" y="4" width="2" height="15" ry=".5" style="fill:#d8d8d8"/>
 <rect x="10" y="4.5" width="3" height="15" ry=".5" style="opacity:.2"/>
 <rect x="10" y="4" width="3" height="15" ry=".5" style="fill:#f0f0f0"/>
 <rect x="13" y="4.5" width="3" height="15" ry=".5" style="opacity:.2"/>
 <rect x="13" y="4" width="3" height="15" ry=".5" style="fill:#d8d8d8"/>
 <rect x="16" y="4.5" width="2" height="15" ry=".5" style="opacity:.2"/>
 <rect x="16" y="4" width="2" height="15" ry=".5" style="fill:#f0f0f0"/>
 <rect x="18" y="4.5" width="2" height="15" ry=".5" style="opacity:.2"/>
 <path d="M 3.4941406,3.5 C 3.2199406,3.5 3,3.7199406 3,3.9941406 V 12.005859 C 3,12.279859 3.2199406,12.5 3.4941406,12.5 H 4.5058594 C 4.7800594,12.5 5,12.279859 5,12.005859 V 3.9941406 C 5,3.7199406 4.7800594,3.5 4.5058594,3.5 Z m 3,0 C 6.2199406,3.5 6,3.7199406 6,3.9941406 V 12.005859 C 6,12.279859 6.2199406,12.5 6.4941406,12.5 H 7.5058594 C 7.7800594,12.5 8,12.279859 8,12.005859 V 3.9941406 C 8,3.7199406 7.7800594,3.5 7.5058594,3.5 Z m 4.0000004,0 C 10.220141,3.5 10,3.7199406 10,3.9941406 V 12.005859 C 10,12.279859 10.220141,12.5 10.494141,12.5 h 1.009765 C 11.777906,12.5 12,12.279859 12,12.005859 V 3.9941406 C 12,3.7199406 11.777906,3.5 11.503906,3.5 Z m 3,0 C 13.220141,3.5 13,3.7199406 13,3.9941406 V 12.005859 C 13,12.279859 13.220141,12.5 13.494141,12.5 h 1.009765 C 14.777906,12.5 15,12.279859 15,12.005859 V 3.9941406 C 15,3.7198406 14.777906,3.5 14.503906,3.5 Z m 3,0 C 16.220141,3.5 16,3.7199406 16,3.9941406 V 12.005859 C 16,12.279859 16.220141,12.5 16.494141,12.5 h 1.009765 C 17.777906,12.5 18,12.279859 18,12.005859 V 3.9941406 C 18,3.7199406 17.777906,3.5 17.503906,3.5 Z" style="opacity:.2"/>
 <rect x="18" y="4" width="2" height="15" ry=".5" style="fill:#d8d8d8"/>
 <path d="M 3.4941406,3 C 3.2199406,3 3,3.2199406 3,3.4941406 V 11.505859 C 3,11.779859 3.2199406,12 3.4941406,12 H 4.5058594 C 4.7800594,12 5,11.779859 5,11.505859 V 3.4941406 C 5,3.2199406 4.7800594,3 4.5058594,3 Z m 3,0 C 6.2199406,3 6,3.2199406 6,3.4941406 V 11.505859 C 6,11.779859 6.2199406,12 6.4941406,12 H 7.5058594 C 7.7800594,12 8,11.779859 8,11.505859 V 3.4941406 C 8,3.2199406 7.7800594,3 7.5058594,3 Z M 10.494141,3 C 10.220141,3 10,3.2199406 10,3.4941406 V 11.505859 C 10,11.779859 10.220141,12 10.494141,12 h 1.009765 C 11.777906,12 12,11.779859 12,11.505859 V 3.4941406 C 12,3.2199406 11.777906,3 11.503906,3 Z m 3,0 C 13.220141,3 13,3.2199406 13,3.4941406 V 11.505859 C 13,11.779859 13.220141,12 13.494141,12 h 1.009765 C 14.777906,12 15,11.779859 15,11.505859 V 3.4941406 C 15,3.2198406 14.777906,3 14.503906,3 Z m 3,0 C 16.220141,3 16,3.2199406 16,3.4941406 V 11.505859 C 16,11.779859 16.220141,12 16.494141,12 h 1.009765 C 17.777906,12 18,11.779859 18,11.505859 V 3.4941406 C 18,3.2199406 17.777906,3 17.503906,3 Z" style="fill:#4f4f4f"/>
 <path d="M 1.0996094,2 C 0.490153,2 0,2.4699484 0,3.0546875 v 0.5 C 0,2.9699484 0.490153,2.5 1.0996094,2.5 H 20.900391 C 21.509622,2.5 22,2.9712309 22,3.5566406 v -0.5 C 22,2.4712309 21.509622,2 20.900391,2 Z" style="fill:#ffffff;opacity:.1"/>
 <path d="m3.4941406 3.0004c-0.2742 0-0.4941406 0.2199406-0.4941406 0.4941406v0.5c0-0.2742 0.2199406-0.4941406 0.4941406-0.4941406h1.0117188c0.2742 0 0.4941406 0.2199406 0.4941406 0.4941406v-0.5c0-0.2742-0.2199406-0.4941406-0.4941406-0.4941406zm3 0c-0.2742 0-0.4941406 0.2199406-0.4941406 0.4941406v0.5c0-0.2742 0.2199406-0.4941406 0.4941406-0.4941406h1.0117188c0.2742 0 0.4941406 0.2199406 0.4941406 0.4941406v-0.5c0-0.2742-0.2199406-0.4941406-0.4941406-0.4941406zm4.0000004 0c-0.274 0-0.494141 0.2199406-0.494141 0.4941406v0.5c0-0.2742 0.220141-0.4941406 0.494141-0.4941406h1.009765c0.274 0 0.496094 0.2199406 0.496094 0.4941406v-0.5c0-0.2742-0.222094-0.4941406-0.496094-0.4941406zm3 0c-0.274 0-0.494141 0.2199406-0.494141 0.4941406v0.5c0-0.2742 0.220141-0.4941406 0.494141-0.4941406h1.009765c0.274 0 0.496094 0.2198406 0.496094 0.4941406v-0.5c0-0.2743-0.222094-0.4941406-0.496094-0.4941406zm3 0c-0.274 0-0.494141 0.2199406-0.494141 0.4941406v0.5c0-0.2742 0.220141-0.4941406 0.494141-0.4941406h1.009765c0.274 0 0.496094 0.2199406 0.496094 0.4941406v-0.5c0-0.2742-0.222094-0.4941406-0.496094-0.4941406z" style="fill:#ffffff;opacity:.1"/>
</svg>

<svg xmlns="http://www.w3.org/2000/svg" width="22" height="22" version="1">
 <path style="opacity:0.2" d="M 22,20.444519 V 3.5561516 C 22,2.9707419 21.509231,2.5 20.9,2.5 H 1.1 C 0.4905436,2.5 0,2.9707419 0,3.555481 V 20.444966 C 0,21.029482 0.4905436,21.5 1.1,21.5 h 19.8 c 0.6094,0 1.1,-0.470764 1.1,-1.055526 z"/>
 <path style="fill:#4f4f4f" d="M 22,19.944519 V 3.0561516 C 22,2.4707419 21.509231,2 20.9,2 H 1.1 C 0.4905436,2 0,2.4707419 0,3.055481 V 19.944966 C 0,20.529482 0.4905436,21 1.1,21 h 19.8 c 0.6094,0 1.1,-0.470764 1.1,-1.055526 z"/>
 <rect style="opacity:0.2" width="3" height="15" x="2" y="4.5" ry=".5"/>
 <rect style="fill:#d8d8d8" width="3" height="15" x="2" y="4" ry=".5"/>
 <rect style="opacity:0.2" width="3" height="15" x="5" y="4.5" ry=".5"/>
 <rect style="fill:#f0f0f0" width="3" height="15" x="5" y="4" ry=".5"/>
 <rect style="opacity:0.2" width="2" height="15" x="8" y="4.5" ry=".5"/>
 <rect style="fill:#d8d8d8" width="2" height="15" x="8" y="4" ry=".5"/>
 <rect style="opacity:0.2" width="3" height="15" x="10" y="4.5" ry=".5"/>
 <rect style="fill:#f0f0f0" width="3" height="15" x="10" y="4" ry=".5"/>
 <rect style="opacity:0.2" width="3" height="15" x="13" y="4.5" ry=".5"/>
 <rect style="fill:#d8d8d8" width="3" height="15" x="13" y="4" ry=".5"/>
 <rect style="opacity:0.2" width="2" height="15" x="16" y="4.5" ry=".5"/>
 <rect style="fill:#f0f0f0" width="2" height="15" x="16" y="4" ry=".5"/>
 <rect style="opacity:0.2" width="2" height="15" x="18" y="4.5" ry=".5"/>
 <path style="opacity:0.2" d="M 3.4941406,3.5 C 3.2199406,3.5 3,3.7199406 3,3.9941406 V 12.005859 C 3,12.279859 3.2199406,12.5 3.4941406,12.5 H 4.5058594 C 4.7800594,12.5 5,12.279859 5,12.005859 V 3.9941406 C 5,3.7199406 4.7800594,3.5 4.5058594,3.5 Z m 3,0 C 6.2199406,3.5 6,3.7199406 6,3.9941406 V 12.005859 C 6,12.279859 6.2199406,12.5 6.4941406,12.5 H 7.5058594 C 7.7800594,12.5 8,12.279859 8,12.005859 V 3.9941406 C 8,3.7199406 7.7800594,3.5 7.5058594,3.5 Z m 4.0000004,0 C 10.220141,3.5 10,3.7199406 10,3.9941406 V 12.005859 C 10,12.279859 10.220141,12.5 10.494141,12.5 h 1.009765 C 11.777906,12.5 12,12.279859 12,12.005859 V 3.9941406 C 12,3.7199406 11.777906,3.5 11.503906,3.5 Z m 3,0 C 13.220141,3.5 13,3.7199406 13,3.9941406 V 12.005859 C 13,12.279859 13.220141,12.5 13.494141,12.5 h 1.009765 C 14.777906,12.5 15,12.279859 15,12.005859 V 3.9941406 C 15,3.7198406 14.777906,3.5 14.503906,3.5 Z m 3,0 C 16.220141,3.5 16,3.7199406 16,3.9941406 V 12.005859 C 16,12.279859 16.220141,12.5 16.494141,12.5 h 1.009765 C 17.777906,12.5 18,12.279859 18,12.005859 V 3.9941406 C 18,3.7199406 17.777906,3.5 17.503906,3.5 Z"/>
 <rect style="fill:#d8d8d8" width="2" height="15" x="18" y="4" ry=".5"/>
 <path style="fill:#4f4f4f" d="M 3.4941406,3 C 3.2199406,3 3,3.2199406 3,3.4941406 V 11.505859 C 3,11.779859 3.2199406,12 3.4941406,12 H 4.5058594 C 4.7800594,12 5,11.779859 5,11.505859 V 3.4941406 C 5,3.2199406 4.7800594,3 4.5058594,3 Z m 3,0 C 6.2199406,3 6,3.2199406 6,3.4941406 V 11.505859 C 6,11.779859 6.2199406,12 6.4941406,12 H 7.5058594 C 7.7800594,12 8,11.779859 8,11.505859 V 3.4941406 C 8,3.2199406 7.7800594,3 7.5058594,3 Z M 10.494141,3 C 10.220141,3 10,3.2199406 10,3.4941406 V 11.505859 C 10,11.779859 10.220141,12 10.494141,12 h 1.009765 C 11.777906,12 12,11.779859 12,11.505859 V 3.4941406 C 12,3.2199406 11.777906,3 11.503906,3 Z m 3,0 C 13.220141,3 13,3.2199406 13,3.4941406 V 11.505859 C 13,11.779859 13.220141,12 13.494141,12 h 1.009765 C 14.777906,12 15,11.779859 15,11.505859 V 3.4941406 C 15,3.2198406 14.777906,3 14.503906,3 Z m 3,0 C 16.220141,3 16,3.2199406 16,3.4941406 V 11.505859 C 16,11.779859 16.220141,12 16.494141,12 h 1.009765 C 17.777906,12 18,11.779859 18,11.505859 V 3.4941406 C 18,3.2199406 17.777906,3 17.503906,3 Z"/>
 <path style="opacity:0.1;fill:#ffffff" d="M 1.0996094,2 C 0.490153,2 0,2.4699484 0,3.0546875 v 0.5 C 0,2.9699484 0.490153,2.5 1.0996094,2.5 H 20.900391 C 21.509622,2.5 22,2.9712309 22,3.5566406 v -0.5 C 22,2.4712309 21.509622,2 20.900391,2 Z"/>
 <path style="opacity:0.1;fill:#ffffff" d="M 3.4941406,3.0004 C 3.2199406,3.0004 3,3.2203406 3,3.4945406 v 0.5 C 3,3.7203406 3.2199406,3.5004 3.4941406,3.5004 H 4.5058594 C 4.7800594,3.5004 5,3.7203406 5,3.9945406 v -0.5 C 5,3.2203406 4.7800594,3.0004 4.5058594,3.0004 Z m 3,0 C 6.2199406,3.0004 6,3.2203406 6,3.4945406 v 0.5 C 6,3.7203406 6.2199406,3.5004 6.4941406,3.5004 H 7.5058594 C 7.7800594,3.5004 8,3.7203406 8,3.9945406 v -0.5 C 8,3.2203406 7.7800594,3.0004 7.5058594,3.0004 Z m 4.0000004,0 C 10.220141,3.0004 10,3.2203406 10,3.4945406 v 0.5 C 10,3.7203406 10.220141,3.5004 10.494141,3.5004 h 1.009765 C 11.777906,3.5004 12,3.7203406 12,3.9945406 v -0.5 C 12,3.2203406 11.777906,3.0004 11.503906,3.0004 Z m 3,0 C 13.220141,3.0004 13,3.2203406 13,3.4945406 v 0.5 C 13,3.7203406 13.220141,3.5004 13.494141,3.5004 h 1.009765 C 14.777906,3.5004 15,3.7202406 15,3.9945406 v -0.5 C 15,3.2202406 14.777906,3.0004 14.503906,3.0004 Z m 3,0 C 16.220141,3.0004 16,3.2203406 16,3.4945406 v 0.5 C 16,3.7203406 16.220141,3.5004 16.494141,3.5004 h 1.009765 C 17.777906,3.5004 18,3.7203406 18,3.9945406 v -0.5 C 18,3.2203406 17.777906,3.0004 17.503906,3.0004 Z"/>
</svg>
